X:1
T:O LORD, Arise, Come Help Me Now
T:Tune: J. G. Wagner's Sammlung alter und neuer, 1742; harm. Johann S. Bach, 1685-1750, alt. Text under copyright; for copyrighted material see Psalter Hymnal 35
T:88 88 88 GOTTLOB www.hymnary.org/text/o_lord_arise_come_help_me_now
T:This music is in the public domain. You may freely use this score for personal and congregational worship. If you reproduce the score, please credit Hymnary.org as the source. 
T:O LORD, Arise, Come Help Me Now
T:This music is in the public domain. You may freely use this score for personal and congregational worship. If you reproduce the score, please credit Hymnary.org as the source. 
Z:This music is in the public domain. You may freely use this score for personal and congregational worship. If you reproduce the score, please credit Hymnary.org as the source.
%%score ( 1 2 ) ( 3 4 )
L:1/8
M:3/4
K:F
V:1 treble nm="SOPRANO ALTO" snm="S. A."
V:2 treble 
V:3 bass nm="TENOR BASS" snm="T. B."
V:4 bass 
V:1
 A2 F2 A2 | B4 A2 | G4 F2 | G6 | A2 A2 A2 | D4 E2 | F4 F2 | E6 | A2 F2 A2 | B4 A2 | G4 F2 | G6 | %12
 A2 A2 A2 | D4 E2 |1 F4 F2 | E6 | C2 G2 G2 | G4 A2 | B4 B2 | A6 || c2 c2 c2 | B4 B2 | A4 G2 | F6 |] %24
V:2
 F2 F2 F2 | (F2 E2) C2 | (D2 C3) =B, | C6 | C2 CE DC | =B,4 C2 | (C2 =B,A,) B,2 | C6 | F2 F2 F2 | %9
 (F2 E2) C2 | (D2 C3) =B, | C6 | C2 CE DC | =B,4 C2 |1 (C2 =B,A,) B,2 | C6 | C2 D2 D2 | E4 F2 | %18
 (F2 ED) E2 | F6 || G2 FE F2 | G4 G2 | F4 E2 | C6 |] %24
V:3
 C2 C2 C2 | (B,2 G,2) F,2 | (F,2 E,2) F,2 | E,6 | F,2 F,G, A,2 | G,4 G,2 | (A,2 F,2) G,2 | G,6 | %8
 C2 C2 C2 | (B,2 G,2) F,2 | (F,2 E,2) F,2 | E,6 | F,2 F,G, A,2 | G,4 G,2 |1 (A,2 F,2) G,2 | G,6 | %16
 E,2 G,2 =B,2 | C4 C2 | (D2 B,2) C2 | C6 || C2 A,B, C2 | D4 C2 | C4 CB, | A,6 |] %24
V:4
 F,2 A,2 F,2 | (G,2 C,2) F,2 | (=B,,2 C,2) D,2 | C,6 | F,2 F,2 F,2 | (G,2 F,2) E,2 | D,4 G,,2 | %7
 C,6 | F,2 A,2 F,2 | (G,2 C,2) F,2 | (=B,,2 C,2) D,2 | C,6 | F,2 F,2 F,2 | (G,2 F,2) E,2 |1 %14
 D,4 G,,2 | C,6 | C,2 =B,,2 G,,2 | (C,2 _B,,2) A,,2 | G,,4 E,2 | F,6 || E,2 F,G, A,2 | %21
 (G,2 F,2) E,2 | (F,2 A,,2) C,2 | [F,,F,]6 |] %24

